X:688
T:Richard Brennan's Favorite
T:Irish Jig
S:Jennifer Wrigley, Tinto 5/7/04
Z:Nigel Gatherer
M:6/8
L:1/8
K:D
z | DFF FEF | AFF FEF | DFA dAF | EFE GFE |
    DFF FEF | AFF FEF | DFA dAF | EFE D2 :|
e | fdd edc | dcB AFA | fdd edc | dfb a2 
e | fdd edc | dcB AFA | FEF dAF | EFE D2 :|
<end>
<start>
